X:1
T:The Bucking Bronco
M:3/4
L:1/4
K:C
 A| F D C| F D C| E B, B,| A,2 A/2A/2| F D C| F D C| E B, B,| A,2 C|\
 D D D| D D D| C C C| C2 C/2G/2| A D C| F C B,| E C B,| A,2||
